static/content/icons/editor-pencil.svg

<?xml version="1.0" encoding="UTF-8" standalone="no"?>
<svg width="16px" height="19px" viewBox="0 0 16 19" version="1.1" xmlns="http://www.w3.org/2000/svg" xmlns:xlink="http://www.w3.org/1999/xlink" xmlns:sketch="http://www.bohemiancoding.com/sketch/ns">
    <!-- Generator: Sketch 3.2.2 (9983) - http://www.bohemiancoding.com/sketch -->
    <title>editor-pencil</title>
    <desc>Created with Sketch.</desc>
    <defs></defs>
    <g id="Editor" stroke="none" stroke-width="1" fill="none" fill-rule="evenodd" sketch:type="MSPage">
        <g id="Editor---Final" sketch:type="MSArtboardGroup" transform="translate(-289.000000, -145.000000)">
            <g id="edit" sketch:type="MSLayerGroup" transform="translate(279.000000, 138.000000)">
                <g id="editor-pencil" transform="translate(10.000000, 7.000000)" sketch:type="MSShapeGroup">
                    <g id="Group-4">
                        <path d="M0.212386207,16.4350644 C0.64742069,16.4782169 1.0705931,16.6946237 1.40411034,17.0839627 C1.73790345,17.4736237 1.92328276,17.9676237 1.96024828,18.4754712 L0.0388689655,18.6780305 L0.212386207,16.4350644 Z" id="Fill-6733" fill="#0C333D"></path>
                        <path d="M0.212468966,16.4350966 L0.0386758621,18.6780627 L0.0486068966,18.6770966 L1.40833103,17.0894695 C1.40667586,17.0878593 1.40584828,17.0856051 1.4041931,17.0839949 C1.07067586,16.6946559 0.647503448,16.4782492 0.212468966,16.4350966 Z" id="Fill-6734" fill="#0C333D"></path>
                        <path d="M4.64165517,17.8587441 C4.60910345,17.820422 4.59972414,17.763422 4.61765517,17.7144729 C4.83255172,17.1274051 4.74013793,16.4240831 4.3302069,15.9452186 C3.92027586,15.4666763 3.3177931,15.3587949 2.81517241,15.6099814 C2.77296552,15.6309136 2.72413793,15.6199644 2.69186207,15.5822864 C2.65848276,15.5433203 2.64882759,15.4863203 2.66703448,15.4370492 C2.88193103,14.8503034 2.78951724,14.1469814 2.37958621,13.6681169 C1.96827586,13.1879644 1.36303448,13.0810492 0.859310345,13.3354559 C0.820413793,13.3551 0.775172414,13.3447949 0.745103448,13.3100153 L0.428965517,13.6681169 L0.212413793,16.4350322 C0.647448276,16.4781847 1.07062069,16.6945915 1.40441379,17.0839305 C1.73793103,17.4735915 1.92303448,17.9675915 1.96027586,18.475439 L4.3302069,18.2226424 L4.64165517,17.8587441 Z" id="Fill-6735" fill="#FFFFFF"></path>
                        <path d="M11.312439,1.34466553 C12.3753355,0.508987561 13.828064,0.891540527 14.7689907,1.73625875 L14.8078872,1.78198756 C15.765564,2.76654053 16.0219586,4.08683559 15.3058207,5.3276322 L11.312439,1.34466553 Z" id="Fill-6736" fill="#D6EAFF"></path>
                        <path d="M10.359314,2.25091553 L10.749939,1.70404053 C10.8765597,1.55590493 11.1210122,1.41179053 11.265564,1.29779053 L15.305931,5.32753559 C15.2085517,5.49628136 15.0971034,5.6534339 14.9704828,5.80124746 L14.5608276,6.27978983 L10.359314,2.25091553 Z" id="Fill-6737" fill="#FFFFFF"></path>
                        <path d="M10.3747559,2.25366211 L0.740496552,13.3044119 C0.775255172,13.3449881 0.820496552,13.3549712 0.859393103,13.3353271 C1.36311724,13.0809203 1.96835862,13.1881576 2.37966897,13.6683102 C2.7896,14.1468525 2.88201379,14.8504966 2.66711724,15.4372424 C2.64891034,15.4861915 2.65856552,15.5435136 2.69111724,15.5815136 C2.72422069,15.6198356 2.77304828,15.6307847 2.81497931,15.6098525 C3.3176,15.3589881 3.92035862,15.4668695 4.33028966,15.9454119 C4.74022069,16.4239542 4.83263448,17.1275983 4.61773793,17.7143441 C4.59953103,17.7636153 4.60918621,17.8202932 4.64173793,17.8586153 L14.5609103,6.27956441 L10.3747559,2.25366211 Z" id="Fill-6739" fill="#64A8EE"></path>
                        <path d="M2.69122759,15.5815458 C2.6584,15.5435458 2.64902069,15.4862237 2.66695172,15.4372746 C2.88184828,14.8502068 2.78971034,14.1468847 2.37950345,13.6683424 C1.9681931,13.1881898 1.36295172,13.0809525 0.859227586,13.3353593 C0.820331034,13.3550034 0.775089655,13.3450203 0.74502069,13.3099186 L0.740606897,13.3047661 L0.428882759,13.6683424 L0.212331034,16.4349356 C0.647365517,16.4784102 1.07081379,16.6944949 1.40433103,17.0838339 L2.69122759,15.5815458 Z" id="Fill-6740" fill="#FFFFFF"></path>
                    </g>
                </g>
            </g>
        </g>
    </g>
</svg>

<svg width="16" height="19" viewBox="0 0 16 19" xmlns="http://www.w3.org/2000/svg"><title>editor-pencil</title><desc>Created with Sketch.</desc><g fill="none" fill-rule="evenodd"><path d="M.212 16.435c.435.043.86.26 1.192.65.334.39.52.883.556 1.39l-1.92.203.172-2.243zM.212 16.435L.04 18.678h.01l1.358-1.59-.004-.004c-.333-.39-.756-.606-1.192-.65z" fill="#0C333D"/><path d="M4.642 17.86c-.033-.04-.042-.097-.024-.146.215-.587.122-1.29-.288-1.77-.41-.477-1.012-.585-1.515-.334-.042.02-.09.01-.123-.028-.034-.04-.043-.096-.025-.145.215-.587.123-1.29-.287-1.77-.412-.48-1.017-.586-1.52-.332-.04.02-.085.01-.115-.025l-.316.358-.22 2.767c.436.043.86.26 1.193.65.334.39.52.883.556 1.39l2.37-.252.31-.364z" fill="#fff"/><path d="M11.312 1.345c1.063-.836 2.516-.453 3.457.39l.037.047c.958.985 1.214 2.305.498 3.546L11.31 1.345z" fill="#D6EAFF"/><path d="M10.36 2.25l.39-.546c.127-.148.37-.292.516-.406l4.04 4.03c-.097.168-.21.325-.336.473l-.41.48-4.2-4.03z" fill="#fff"/><path d="M10.375 2.254L.74 13.304c.035.04.08.05.12.03.503-.253 1.108-.146 1.52.334.41.48.502 1.182.287 1.77-.018.048-.008.106.024.144.035.038.084.05.126.028.503-.25 1.105-.143 1.515.335.41.48.504 1.183.29 1.77-.02.05-.01.105.023.144l9.92-11.58-4.187-4.027z" fill="#64A8EE"/><path d="M2.69 15.582c-.032-.038-.04-.096-.023-.145.215-.587.123-1.29-.287-1.77-.412-.48-1.017-.586-1.52-.332-.04.02-.085.01-.115-.025l-.004-.005-.31.363-.217 2.767c.435.043.86.26 1.192.65L2.69 15.58z" fill="#fff"/></g></svg>
